!!!!SEGMENT: pl-kk--kk-i-6--040-003_anonim--missa-supra-resonet-sanctus.krn
!!!cenid: 16xx:1032
!!!COM: Anonim
!!!COM-rismid: pe30004985
!!!CDT:
!!!CNT:
!!!OPR: Missa supra Resonet
!!!OTL: Sanctus
!!!OMV: 003
!!!PDT:
!!!AGN: Sacred; Mass
!!!SMS-siglum: PL-Kk
!!!SMS-shelfmark: Kk.I.6
!!!SMS-shelfwork: 040-003 M
!!!SMS-variant:
!!!SMS-altvar:
!!!NIFC-rismid: 1001136502
!!!URL-scan: http://repozytorium.nifc.pl/skany/pl-kk-nut--i-6
!!!ONB-nifc: UWAGA: C (skan 0062-0064, s. 120-124), T (skan 0174-0176, s. 152-156), B (skan 0283-0285, s. 148-152) Części Mszy: 1. Kyrie, 2. Et in terra, 3. Sanctus, 4. Agnus Dei
!!!AIN: 1 empty 1 tenor 1 vox
!!!key:
**kern	**text	**kern	**text	**kern	**text
*part3	*part3	*part2	*part2	*part1	*part1
*staff3	*staff3	*staff2	*staff2	*staff1	*staff1
*Iempty	*	*Itenor	*	*Ivox	*
*I"Baſsus.	*	*I"Tenor.	*	*I"Cantus.	*
*I'B	*	*I'T	*	*I'S	*
*clefF4	*	*clefC4	*	*clefC1	*
*k[]	*	*k[]	*	*k[]	*
*G:	*	*G:	*	*G:	*
*M2/1	*	*M2/1	*	*M2/1	*
*met(c|)	*	*met(c|)	*	*met(c|)	*
=1	=1	=1	=1	=1	=1
1r	.	2r	.	2.g/	SAn-
.	.	2.G/	San-	.	.
!	!	!	!	!LO:TX:t=P:problem=all\left, center or right&colon; global	!
.	.	.	.	4a\	.
2.GG/	Sa[n]-	.	.	4b\	.
.	.	4A/	.	4cc\	.
!	!	!LO:TX:t=P:problem=all\left, center or right&colon; global	!	!LO:TX:t=P::problem=kreska pseudotaktowa&colon;między nutą a kropką	!
.	.	4B\	.	2.dd\	.
4AA/	.	4c\	.	.	.
=2-	=2-	=2-	=2-	=2-	=2-
4BB/	.	2.d\	.	.	.
4C/	.	.	.	8cc\L	.
.	.	.	.	8b\J	.
!	!	!	!	!LO:TX:t=P::problem=kreska pseudotaktowa&colon;między nutą a kropką	!
2.D/	.	.	.	2.a\	.
.	.	8c\L	.	.	.
.	.	8B\J	.	.	.
.	.	1A\	-ctus	.	.
8C/L	.	.	.	4b\	.
8BB/J	.	.	.	.	.
4AA/	.	.	.	4cc\	.
!LO:TX:t=P:global:problem=oddech jako rozdzielacz słów	!	!	!	!LO:TX:t=P:problem=kreska pseudotaktowa	!
4BB,</	-ctus	.	.	4dd\	.
=3-	=3-	=3-	=3-	=3-	=3-
2.C/	San-	2r	.	2.ee\	.
.	.	2c\	San-	.	.
!LO:TX:t=P:problem=all\left, center or right&colon; global	!	!	!	!LO:TX:t=P:problem=kreska pseudotaktowa	!
4D\	.	.	.	4dd\	.
4E\	.	2.G/	.	2cc\	.
4F\	.	.	.	.	.
2.G\	.	.	.	2b\	-ctus
.	.	4A/	.	.	.
=4-	=4-	=4-	=4-	=4-	=4-
.	.	4B\	.	2r	.
8F\L	.	4c\	.	.	.
8E\J	.	.	.	.	.
!	!	!	!	!LO:TX:t=P::problem=kreska pseudotaktowa&colon;między nutą a kropką	!
4D\	.	2d\	.	2.a\	San-
4E\	.	.	.	.	.
4F\	.	2c\	-ctus	.	.
*custos:A	*	*	*	*	*
4G\	.	.	.	4b\	.
!LO:LB:g=original	!	!	!	!	!
2.A\	.	2.c\	San-	4cc\	.
*	*	*	*	*custos:ee	*
.	.	.	.	4dd\	.
=5-	=5-	=5-	=5-	=5-	=5-
!	!	!	!	!LO:LB:g=original	!
.	.	.	.	1ee\	.
8G\L	.	8B\L	.	.	.
8F\J	.	8A\J	.	.	.
2E\	.	2G/	.	.	.
*	*	*custos:G	*	*	*
2F,<\	-ctus	2A/	.	2cc\	.
!	!	!LO:LB:g=original	!	!LO:TX:t=P:problem=kreska pseudotaktowa	!
2G\	San-	1G/	.	2b\	-ctus
=6-	=6-	=6-	=6-	=6-	=6-
*	*	*	*	*	*ij
1D\	.	.	.	1a\	San-
!	!	!LO:TX:t=P:♯below:problem	!	!	!
.	.	2F#X/	.	.	.
1GG/	-ctus	1G/	-ctus	1b\	-ctus
=7-	=7-	=7-	=7-	=7-	=7-
*M3/2	*	*M3/2	*	*M3/2	*Xij
2.G\	D(o-	2.B\	Do-	2.dd\	D(o-
4G\	-mi)-	4B\	-mi-	4dd\	-mi)-
2G\	-nus	2d\	-nus	2b\	-nus
=8-	=8-	=8-	=8-	=8-	=8-
1G\	De-	1B\	De-	2.g/	De-
.	.	.	.	4a\	.
2G\	-us	2G/	-us	4b\	-us
.	.	.	.	4cc\	.
=9-	=9-	=9-	=9-	=9-	=9-
1G\	Sa-	1B\	Sa-	1dd\	Sa-
2C/	-ba-	2c\	-ba-	2ee\	-ba-
=10-	=10-	=10-	=10-	=10-	=10-
1.GG/	-oth	1.B\	-oth	1.dd\	-oth
=11-	=11-	=11-	=11-	=11-	=11-
*	*	*	*ij	*	*ij
2.G\	D(o-	2.B\	Do-	2.dd\	D(o-
4G\	-mi)-	4B\	-mi-	4dd\	-mi)-
*custos:G	*	*	*	*	*
2A\	-nus	2c\	-nus	2cc\	-nus
=12-	=12-	=12-	=12-	=12-	=12-
!LO:LB:g=original	!	!	!	!	!
1G\	De-	1d\	De-	2.b\	De-
.	.	.	.	4cc\	.
*	*	*	*	*custos:cc	*
2BB/	-us	2d\	-us	2dd\	-us
=13-	=13-	=13-	=13-	=13-	=13-
!	!	!	!	!LO:PB:g=original	!
1C/	Sa-	1e\	Sa-	1cc\	Sa-
2D/	-ba-	2d\	-ba-	2a\	-ba-
=14-	=14-	=14-	=14-	=14-	=14-
*	*	*custos:d	*	*	*
1.GG/	-oth.	1.d\	-oth	1.b\	-oth
*	*	*	*Xij	*	*Xij
=15-	=15-	=15-	=15-	=15-	=15-
!	!	!LO:PB:g=original	!	!	!
2.G\	D(o-	2.d\	D(o-	2.b\	D(o-
4G\	-mi)-	4d\	-mi)-	4b\	-mi)-
!LO:TX:t=P:♯below:problem	!	!	!	!	!
2F#X\	-nus	2B\	-nus	2dd\	-nus
=16-	=16-	=16-	=16-	=16-	=16-
1G\	De-	1d\	De-	1b\	De-
2C/	-us	2c\	-us	2g/	-us
=17-	=17-	=17-	=17-	=17-	=17-
*	*	*	*	*	*ij
(4GG/	Do-	2.d\	D(o-	2.b\	D(o-
4AA/)	.	.	.	.	.
(4BB/	-mi-	.	.	.	.
4C/)	.	4d\	-mi)-	4b\	-mi)-
2D/	-nus	2d\	-nus	2a\	-nus
=18-	=18-	=18-	=18-	=18-	=18-
1AA/	De-	1e\	De-	1cc\	De-
2BB/	-us	2d\	-us	2b\	-us
*	*	*	*	*	*Xij
=19-	=19-	=19-	=19-	=19-	=19-
2C/	Sa-	2c\	Sa-	1a\	Sa-
1D\	-ba-	2A/	.	.	.
.	.	2d\	-ba-	2a\	-ba-
=20-	=20-	=20-	=20-	=20-	=20-
*M2/1	*	*M2/1	*	*M2/1	*
*met(c|)	*	*	*	*	*
*custos:C	*	*	*	*	*
*	*	*met(c|)	*	*met(c|)	*
1GG/	-oth,	1d\	-oth	1b\	-oth
*	*	*	*	*	*ij
!LO:PB:g=original	!	!	!	!	!
2C/	De-	2e\	De-	2cc\	Sa-
2GG/	-us	2d\	-us	2b\	.
=21-	=21-	=21-	=21-	=21-	=21-
2.D/	Sa-	2.d\	Sa-	2.a\	.
4D/	-ba-	4d\	-ba-	4a\	-ba-
*	*	*custos:d	*	*	*
!	!	!	!	!LO:N:vis=0	!
1GG/;	-oth.	1d\;<	-oth.	1b\	-oth
=22||	=22||	=22||	=22||	=22||	=22||
*M3/2	*	*M3/2	*	*M3/2	*Xij
!	!	!LO:LB:g=original	!	!LO:LB:g=original	!
1D\	PLe-	1d\	PLe-	1dd\	PLe-
2D/	-ni	2A/	-ni	2dd\	-ni
=23-	=23-	=23-	=23-	=23-	=23-
!	!	!LO:SIC:v:s=1c	!	!	!
1C/	ſunt	1d\	ſunt	1ee\	ſunt
!	!	!LO:SIC:v:s=2c	!	!LO:TX:t=P:♯below:problem	!
2AA/	cae-	2d\	cae-	2ff#X\	Cae-
=24-	=24-	=24-	=24-	=24-	=24-
1GG/	-li	1B\	-li	1gg\	-li
2GG/	et	2B\	et	2gg\	et
=25-	=25-	=25-	=25-	=25-	=25-
1GG/	ter-	1B\	ter-	1gg\	ter-
2GG/	-ra	2B\	-ra	2gg\	-ra
=26-	=26-	=26-	=26-	=26-	=26-
!	!	!	!	!LO:TX:t=P:♯below:problem	!
2.D/	glo-	2.A/	glo-	2.ff#X\	glo-
4D/	-ri-	4A/	-ri-	4ff#\	-ri-
*custos:AA	*	*	*	*	*
2D/	-a	2d\	-a	2dd\	-a
=27-	=27-	=27-	=27-	=27-	=27-
!LO:LB:g=original	!	!	!	!	!
1.AA/	tu-	2d\	tu-	1.ee\	tu-
!	!	!LO:TX:t=P:♯below:problem	!	!	!
.	.	1c#X\	.	.	.
=28-	=28-	=28-	=28-	=28-	=28-
*M2/1	*	*M2/1	*	*M2/1	*
*met(c|)	*	*met(c|)	*	*met(c|)	*
1D\,<	-a	1d\	-a	1dd\	-a
2G\	O-	2B\	O-	2dd\	O-
4G\	-ſan-	4B\	-ſan-	4dd\	-ſan-
*	*	*custos:B	*	*	*
4C/	-na	4cny\	-na	4ee\	-na
=29-	=29-	=29-	=29-	=29-	=29-
*	*ij	*	*	*	*ij
!	!	!LO:LB:g=original	!	!	!
2GG/	O-	2B\	O-	2dd\	O-
4AA/	-ſan-	4A/	-ſan-	4cc\	-ſan-
*	*	*	*	*custos:b	*
4AA,</	-na	4A/	-na	4cc\	-na
*	*Xij	*	*	*	*Xij
!	!	!	!	!LO:LB:g=original	!
4BB/	in	4G/	in	4b\	in
4GG/	ex-	4G/	ex-	4b\	ex-
2D/	-cel-	4G/	-cel-	2a\	-cel-
!	!	!LO:TX:t=P:♯below:problem	!	!	!
.	.	4F#X/	.	.	.
=30-	=30-	=30-	=30-	=30-	=30-
!LO:TX:t=P:problem=kreska pseudotaktowa	!	!	!	!	!
1GG/	-ſis	1G/	-ſis.	1b\	-ſis.
2G\	O-	2d\	O-	2b\	O-
4G\	-ſan-	4d\	-ſan-	4b\	-ſan-
4C,</	-na	4e\	-na	4cc\	-na
=31-	=31-	=31-	=31-	=31-	=31-
*	*ij	*	*	*	*ij
2GG/	O-	2d\	O-	2b\	O-
4AA/	-ſan-	4c\	-ſan-	4a\	-ſan-
4AA,</	-na	4c\	-na	4a\	-na
*	*Xij	*	*	*	*Xij
2BB/	in	2.B\	in	2.g/	in
8GG/L	ex-	.	.	.	.
8AA/	.	.	.	.	.
8BB/	.	4B\	ex-	4g/	ex-
8C/J	.	.	.	.	.
=32-	=32-	=32-	=32-	=32-	=32-
1D\	-cel-	1A\	-cel-	2g/	-cel-
!	!	!	!	!LO:TX:t=P:♯below:problem	!
.	.	.	.	2f#X/	.
*	*	*	*	*custos:dd	*
*custos:G	*	*	*	*	*
!	!	!	!	!LO:N:vis=0	!
1GG/;	-ſis.	1B\;;	-ſis.	1g\	-ſis.
=33||	=33||	=33||	=33||	=33||	=33||
*M2/1	*	*M2/1	*	*M2/1	*
*met(c|)	*	*met(c|)	*	*met(c|)	*
!LO:LB:g=original	!	!LO:LB:g=original	!	!LO:LB:g=original	!
0r	.	2d\	Be-	1r	.
.	.	4B\	-ne-	.	.
.	.	4G/	-di-	.	.
.	.	4.d\	-ctus	2dd\	Be-
.	.	8d\	qui	.	.
.	.	2e\	Ve-	4b\	-ne-
!	!	!	!	!LO:TX:t=P:problem=kreska pseudotaktowa	!
.	.	.	.	4g\	-di-
=34-	=34-	=34-	=34-	=34-	=34-
2G\	Be-	8d\	-nit	4.dd\	-ctus
.	.	8B\	in	.	.
.	.	8d\	no-	.	.
.	.	8B\	-mi-	8dd\	qui
!	!	!	!	!LO:TX:t=P:problem=kreska pseudotaktowa	!
4E\	-ne-	2c\	-ne	2ee\	Ve-
4C/	-di-	.	.	.	.
!	!	!LO:N:vis=2	!	!	!
4.G\	-ctus	4B\	Do-	8dd\	-nit
.	.	.	.	8b\	in
.	.	8A\L	.	8dd\	No-
8G\	qui	8B\J	.	8b\	-mi-
!	!	!	!	!LO:TX:t=P:problem=kreska pseudotaktowa	!
2A\	Ve-	4.c\	.	2cc\	-ne
.	.	8A\	-mi-	.	.
=35-	=35-	=35-	=35-	=35-	=35-
8G\	-nit	8B\,<	-ni	2ee\	Do-
8E\	in	8B\	in	.	.
8G\	no-	8B\	no-	.	.
*	*	*custos:A	*	*	*
8E\	-mi-	8B\	-mi-	.	.
!	!	!LO:LB:g=original	!	!	!
2F\	-ne	8A\L	-ne	8cc\L	.
.	.	8G\	.	8b\J	.
.	.	8A\	.	8.cc\L	.
.	.	8B\J	.	.	.
!	!	!	!	!LO:TX:t=P:problem=kreska pseudotaktowa	!
.	.	.	.	16dd\Jk	-mi-
!	!	!LO:TX:t=P:global:problem=oddech jako rozdzielacz słów	!	!	!
8r	.	8c,<\	.	4ee\	-ni
8C/	in	8c\	in	.	.
8E/	no-	8c\	no-	4ee\	qui
8C/	-mi-	8c\	-mi-	.	.
8F\L	-ne	8A\L	-ne	4cc\	Ve-
8G\	.	8B\	.	.	.
8A\	.	8c\	.	8a\	-nit
*	*	*	*	*custos:g	*
!	!	!	!	!LO:TX:t=P:problem=kreska pseudotaktowa	!
8F\J	.	8A\J	.	8a\	in
=36-	=36-	=36-	=36-	=36-	=36-
!	!	!	!	!LO:LB:g=original	!
2.G\	Do-	(4B\	Do-	2.g/	No-
.	.	2c\)	.	.	.
*custos:C	*	*	*	*	*
!	!	!	!	!LO:TX:t=P:problem=kreska pseudotaktowa	!
4G\	-mi-	4B\	-mi-	4g/	-mi-
!LO:LB:g=original	!	!	!	!	!
2C,</	-ni	8c,<\	-ni	2g,</	-ne
.	.	8c\	in	.	.
.	.	8e\	no-	.	.
.	.	8c\	-mi-	.	.
!	!	!	!	!LO:TX:t=P:problem=kreska pseudotaktowa	!
2AA/	in	2c\	-ne	2a\	in
=37-	=37-	=37-	=37-	=37-	=37-
4.GG/	no-	1d\	.	4.b\	No-
8GG/	-mi-	.	.	8cc\	-mi-
!LO:TX:t=P:problem=♯above	!	!	!	!LO:TX:t=P:problem=kreska pseudotaktowa	!
2FF#X/	-ne	.	.	2dd\	-ne
2.AA/	Do-	2.A/	Do-	4dd\	Do-
!	!	!	!	!LO:TX:t=P:problem=♯above	!
.	.	.	.	8cc#X\L	.
.	.	.	.	8b\J	.
!	!	!	!	!LO:TX:t=P:problem=♯above	!
.	.	.	.	4.cc#X\	.
4AA/	-mi-	4A/	-mi-	.	.
.	.	.	.	8cc#\	-mi-
=38-	=38-	=38-	=38-	=38-	=38-
*	*	*custos:d	*	*	*
!LO:TX:t=P:problem=kreska pseudotaktowa	!	!LO:TX:t=P:problem=podwójna kreska	!	!LO:TX:t=P:problem=kreska pseudotaktowa	!
1D\;	-ni	1A\;	-ni	1dd\	-ni
=39-	=39-	=39-	=39-	=39-	=39-
*M3/2	*	*M3/2	*	*M3/2	*
!	!	!LO:LB:g=original	!	!	!
1G\	O-	1d\	O-	1dd\	O-
2G\	-ſan-	2d\	-ſan-	2b\	-ſan-
=40-	=40-	=40-	=40-	=40-	=40-
1G\	-na	1B\	-na	1g\	-na
2G\	in	2G/	in	2b\	in
=41-	=41-	=41-	=41-	=41-	=41-
1G\	ex-	1B\	ex-	1dd\	ex-
2C/	-cel-	2c\	-cel-	2ee\	-cel-
=42-	=42-	=42-	=42-	=42-	=42-
*	*	*	*	*custos:dd	*
1.G\	-ſis	1.B\	-ſis	1.dd\	-ſis
=43-	=43-	=43-	=43-	=43-	=43-
*	*ij	*	*ij	*	*ij
!	!	!	!	!LO:LB:g=original	!
1G\	O-	1B\	O-	1dd\	O-
2A\	-ſan-	2c\	-ſan-	2ccny\	-ſan-
=44-	=44-	=44-	=44-	=44-	=44-
1G\	-na	1d\	-na	1b\	-na
*custos:C	*	*	*	*	*
2GG/	in	2d\	in	2dd\	in
=45-	=45-	=45-	=45-	=45-	=45-
!LO:LB:g=original	!	!	!	!	!
1C/	ex-	1e\	ex-	1cc\	ex-
2D/	-cel-	2d\	-cel-	2a\	-cel-
=46-	=46-	=46-	=46-	=46-	=46-
1GG/,<	-ſis	1.d\	-ſis	1b\,<	-ſis
*	*Xij	*	*Xij	*	*Xij
2G\	O-	.	.	2b\	O-
=47-	=47-	=47-	=47-	=47-	=47-
1F#X\	-ſan-	1d\	O-	1dd\	-ſan-
2G\	-na	2d\	-ſan-	2b\	-na
=48-	=48-	=48-	=48-	=48-	=48-
1G\	in	1B\	-na	1g\	in
2G\	ex-	2.G/	.	2b\	ex-
=49-	=49-	=49-	=49-	=49-	=49-
2.GG/	-cel-	.	.	1b\	-cel-
.	.	4A/	.	.	.
.	.	4B\	.	.	.
*	*	*custos:d	*	*	*
4AA/	.	4c\	.	.	.
!	!	!LO:TX:t=P:problem=kreska pseudotaktowa	!	!	!
!	!	!LO:LB:g=original	!	!	!
4BB/	.	2d\	.	2b\	-ſis
4C/	.	.	.	.	.
=50-	=50-	=50-	=50-	=50-	=50-
*	*	*	*	*	*ij
2.D/	.	1d\	.	1a\	in
8C/L	.	.	.	.	.
8BB/J	.	.	.	.	.
2AA,</	-ſis	2e\	.	2cc\	ex-
=51-	=51-	=51-	=51-	=51-	=51-
2BB/	in	2d\	in	2b\	-cel-
2C/	ex-	2e\	ex-	1a\	.
2D/	-cel-	2d\	-cel-	.	.
=52-	=52-	=52-	=52-	=52-	=52-
*custos:G	*	*	*	*custos:dd	*
1.GG/	-ſis	1.d\	-ſis	1.g\	-ſis
*	*	*	*	*	*Xij
=53-	=53-	=53-	=53-	=53-	=53-
!LO:LB:g=original	!	!	!	!LO:LB:g=original	!
1G\	O-	1B\	O-	1dd\	O-
2G\	-ſan-	2B\	-ſan-	2b\	-ſan-
=54-	=54-	=54-	=54-	=54-	=54-
1G\	-na	2d\	-na	2g/	-na
.	.	2d\	in	2g/	in
2G\	in	2d\	ex-	2b\	ex-
=55-	=55-	=55-	=55-	=55-	=55-
2.GG/	ex-	1d\	-cel-	1b\	-cel-
4AA/	.	.	.	.	.
4BB/	-cel-	2G/	-ſis	2b\	-ſis
4C/	.	.	.	.	.
=56-	=56-	=56-	=56-	=56-	=56-
*	*	*	*	*	*ij
2.D/	.	2r	.	1a\	in
.	.	1A\	in	.	.
8C/L	.	.	.	.	.
8BB/J	.	.	.	.	.
2AA,</	-ſis	.	.	2cc\	ex-
=57-	=57-	=57-	=57-	=57-	=57-
2BB/	in	2d\	ex-	2b\	-cel-
2C/	ex-	2c\	-cel-	1a\	.
2D/	-cel-	2A/	-ſis	.	.
=58-	=58-	=58-	=58-	=58-	=58-
*M2/1	*	*M2/1	*	*M2/1	*
*met(c|)	*	*met(c|)	*ij	*met(c|)	*
2GG,/	-ſis,	2B\	in-	1g\	-ſis
*	*	*	*	*	*Xij
1C/	in	4c\	.	.	.
.	.	4d\	.	.	.
.	.	2e\	.	2cc\	in
2BB/	ex-	2d\	-ex-	2dd\	ex-
=59-	=59-	=59-	=59-	=59-	=59-
1C/	-cel-	1c\	-cel-	1ee\	-cel-
!LO:N:vis=0	!	!LO:N:vis=0	!	!LO:N:vis=0	!
!LO:TX:t=P:problem=brak kreski finalnej	!	!LO:TX:t=P:problem=brak kreski finalnej	!	!LO:TX:t=P:problem=brak kreski finalnej	!
1GG/;	-ſis.	1B\	-ſis	1dd\	-ſis.
*	*	*	*Xij	*	*
==	==	==	==	==	==
*-	*-	*-	*-	*-	*-
!!!system-decoration: [(s1,s2,s3)]
!!!RDF**kern: > = above
!!!RDF**kern: < = below
!!!EED: Andrzej Borzym
!!!EEV: 2021-03-24
!!!ENC: Andrzej Borzym
!!!END: 2021-03-09
